X:2334
T:Kiaulliaght-Kiune
C:Mrs Clague, Dalby
C:Traditional
O:Isle of Man
Z:Collected by Mona Douglas 
B:Kiaull Vannin #334 
M:3/4 
L:1/4
K:D 
F2 A|Bc B|(A3|A2) F|BB B|Bc B|A3 |F3 ||
F2 A|Bc B|(A3|A2) F|BB B|Bc B|A3 |F3 ||
ff f|ed A|dB G|c2 z/|cc c|AF D|
BB B|(G2F)|Dd B|GF E|D3 |d2 z/||

